X: 19860
T: Jessica's Drum
R: jig
M: 6/8
K: Edorian
"Em" EFE EFE|EFG "D"A3|"Em" BAG "D" AGF|"Em" E6:|
"Em" BAG GAB|"D" AGF FGA|1 " Em" GFE EFG|"B" F6:|2 " Em" BAG "D" AGF|"Em" E6||

